X:1
T:Joachim a Burgk 1546 - 1610
T:Im Garten leidet Christus Not
%%score [ 1 2 3 4 ]
L:1/8
M:2/1
K:C
V:1 treble nm="Discantus"
V:2 treble nm="Altus"
V:3 treble nm="Tenor"
V:4 treble nm="Bassus"
V:1
"^C""^;" x16 | E8 E6 ^F2 | ^G4 A4 B12 | A4 A8 x4 |[M:4/2] A8 ^G8 x4 | z8 z4 B4 x2 | c4 B4 A4 ^G4 | %7
w: |Im Gar- *|* ten lei-|det Chri-|stus Not|den|Va- ter bitt, ringt|
w: |||||||
w: |Der Herr *|* mit sei-|nen Jün-|gern saß,|das|O- ster- lamm zum|
 A4 B4 A6 A2 x4 | A2 A2 ^G4 A4 B2 B2 | E4 ^F4 G4 G2 G4 | A2 G2 ^F2"^}" ^G4 z2 A4 x2 | %11
w: mit dem Tod, sein|blu- tig Schweiß auf Er- den|fällt, den Fein- den er|sich wil- lig stellt. *|
w: |||* * * * Sie-|
w: letz- ten aß da|stift er uns sein Leib und|Blut in Speiß und Trank,|meints herz- lich gut. *|
 A2 A4 ^G4 A4- | A2 A2"^(  )" G4 G4 ^F4 | z2 A4 A2 A4 ^G2 A2 x2 | A4"^(  )" G4 G4 ^F4 | %15
w: |* ist Got- tes Lamm,|sie- he, sie- he, das|ist Got- tes Lamm,|
w: he sie- he, das||||
w: ||||
 G4 G2 G4 F4 E4 | D2 E4 z2 G2 G2 G4 | F4 E4 D2 E4- x2 | E2 A4 ^F2 F2 G4 E2 | E4 A6 G4 F2 | %20
w: al- ler Welt Sünd macht|ihm bang, Sünd und Straf|zu- gleich es trägt|* se- lig, ist, se- lig|ist, wer's herz- lich|
w: |||||
w: |||||
 E4 E2 E4 DC D2 D2 x4 |"E" x16 |] %22
w: glaubt, wer's~ herz- * * * lich||
w: ||
w: ||
V:2
"^C""^;" x16 | B,16 | E12 E4 x4 | E8 F4 E4- |[M:4/2] E4 D4 E12 | E4 D2 C2 E4 E2 E4 | %6
w: |Im|Gar- ten|lei- det Chri-|* stus Not|den Va- ter bitt, ringt mit|
w: ||||||
w: |Der|Herr mit|sei- nen Jün-|* gern saß|das O- ster- lamm zum letz-|
 E2 E4 z2 E2 x6 | E8 E4 F8 | E4 F4 D4 x4 | ^C4 D4 D4 E4 x2 | E2 E2 E2 ^D2"^}" E4 z2 E4 | %11
w: dem Tod, sein|blu- tig Schweiß|auf Er- den|fällt, den Fein- den|er sich wil- lig stellt. *|
w: ||||* * * * * Sie-|
w: ten aß, da|stift er uns|sein Leib und|Blut in Speis und|Trank,~ ~meints herz- lich gut. *|
 F2 E4 E6 E2 | F4 ED D4 ^C2 D4 | z2 E4 F2 E4 E2 E2 x2 | F4 ED D4 ^C2 D4 | E4 D2 E2 D2 C2 B,4 x2 | %16
w: |ist Got * * tes Lamm,|sie- he, sie- he, das|ist Got * * tes Lamm,|al- ler Welt Sünd * *|
w: he, sie- he, das|||||
w: |||||
 A,2 A,2 G,4 C4 B,2 E2 | D3 C B,2 B,3 A, A,4 ^G,2 | A,2 E4 D2 D4 D2 C2 | C4 E4 E4 D4 | %20
w: macht ihm bang, Sünd und Straf,|Straf * * zu- * gleich es|trägt, se- lig ist, se- lig|ist, wer's herz- lich|
w: ||||
w: ||||
 B,4 C4 C3 B, A,2 A,2 x4 | C4 B,2 A,2"B" x8 |] %22
w: glaubt, wer's herz- * * lich|glaubt. * *|
w: ||
w: ||
V:3
"^C""^;" x16 | E,8 ^G,6 A,2 | B,4 C4 ^G,6 A,2 x4 | B,4 C4 C6 B,2 | %4
w: |Im Gar- *|* ten lei- *|* det Chri- *|
w: ||||
w: |Der Herr *|* mit sei- *|* nen Jün- *|
[M:4/2][K:treble-8] A4 A4 B4 z2 B2 x4 | c4 B4 A4 ^G4 x2 | A4 B4 c2 c2 B2 B2 | %7
w: * stus Not, den|Va- ter bitt ringt|mit dem Tod, sein blu- tig|
w: |||
w: * gern saß, das|O- ster- lamm zum|letz- ten aß, da stift er|
 c4 B4 c2 c2 c2 c2 x4 | d2 d2 B4 d2 A4 ^G2 | A6 A2 B2 B2 B2 c2 x2 | c4 B4"^}" B4 z2 c4 | %11
w: Schweiß auf Er- den fällt, sein|blu- tig Schweiß auf Er- den|fällt, den Fein- den er sich|wil- lig stellt. *|
w: |||* * * Sie-|
w: uns sein Leib und Blut, da|stift er uns sein Leib und|Blut in Speis und Trank,~ ~meints|herz- lich gut. *|
 d2 c4 B4 c4- | c2 d2 B3 A B2 G2 A4 | z2 c4 d2 c4 B2 c4 | d2 B4 G4 A4 x2 | c4 B2 cB A2 A4 ^G2 x2 | %16
w: |* ist Got- * * tes Lamm,|sie- he, sie- he das|ist Got- tes Lamm,|al- ler Welt * * Sünd macht|
w: he, sie- he, das|||||
w: |||||
 A4 B4 e2 e3 d cB | A2 A4 ^G2 A4 B4 | c6 A2 A2 B4 G2 | G4 c4 c4 A4 | ^G2 G2 A4 A4 A8 | %21
w: ihm bang, Sünd und * Straf *|* zu- gleich es trägt,|se- lig ist, se- lig|ist, wer's herz- lich|glaubt,~~~ ~~~~wer's~~~ ~~~~herz- lich glaubt.|
w: |||||
w: |||||
 ^G2 ^F2"G" x8 x4 |] %22
w: |
w: |
w: |
V:4
"^F""^;" x16 | E,16 | E,4 A,,4 E,6 ^F,2 x4 | ^G,4 A,4 A,6 =G,2 |[M:4/2] F,4 F,4 E,8 x4 | %5
w: |Im|Gar- ten lei- *|* det Chri- *|* stus Not,|
w: |||||
w: |Der|Herr mit sei- *|* nen Jün- *|* gern saß|
 z4 E,4 F,4 E,4 x2 | A,,4 ^G,,4 A,,4 E,4 | A,,2 A,2 ^G,2 G,2 A,3"^(  )" =G, F,3 E, x4 | %8
w: den Va- ter|bitt, ringt mit dem|Tod, sein blu- tig Schweiß * * *|
w: |||
w: das O- ster-|lamm zum letz- ten|aß, da stift er uns * * *|
 D,4 E,4 D,3 C, B,,2 B,,2 | A,,4 D,4 G,4 E,2 C,4 | A,,2 E,2 B,,2"^}" E,4 z2 A,4 x2 | %11
w: * auf Er- * * den|fällt, den Fein- den er|sich wil- lig stellt *|
w: ||* * * * sie-|
w: * sein Leib * * und|Blut in Speis und Trank,|meints herz- lich gut. *|
 D,2 A,,4 E,4 A,4 | F,4 G,3 F, E,2 E,2 D,4 | z2 A,4 D,2 A,,4 E,2 A,2 x2 | F,4 G,3 F, E,2 E,2 D,4 | %15
w: |ist Got- * * tes Lamm,|sie- he, sie- he das|ist Got- * * tes Lamm,|
w: he sie- he, das||||
w: ||||
 C,4 G,,2 C,2 D,4 E,4 x2 | F,4 E,4 C,4 G,,2 C,2 | D,4 E,4 F,4 E,4 | z2 A,4 D,2 D,2 G,4 C,2 | %19
w: al- ler Welt Sünd macht|ihm bang, Sünd und Straf|zu- gleich es trägt,|se- lig- ist, se- lig-|
w: ||||
w: ||||
 C,4 A,,4 C,4 D,4 | E,4 A,,4 F,4 F,4 x4 |"C" x16 |] %22
w: ist, wer's herz- lich|glaubt, wer's herz- lich||
w: |||
w: |||

